X: 1
T: The Kesh Jig
N: page 1
N: hexatonic
N: matches 161
R: jig
M: 6/8
L: 1/8
K: G
D | "G"G2 G GAB | "D"A2 A ABd | "G"edd gdd | "Em"edB "G"dBA  |\
G2 G GAB |"D"A2 A ABd | "G"edd gdB | "D"AGF "G"G2 ::
 A |"G"B2 B dBd | ege "G"dBG | B2 B dBG | "D"ABA AGA  |\
 "G"B2 B dBd| "Em"ege "G"dBd | gfg "D"aga | "G"bgf g2 :|


